packages/sources/icons/src/vitamix/close-circle-fill.svg

<svg width="16" height="16" viewBox="0 0 16 16" fill="none" xmlns="http://www.w3.org/2000/svg">
<path fill-rule="evenodd" clip-rule="evenodd" d="M1.33333 8.00001C1.33333 11.682 4.318 14.6667 8 14.6667C11.682 14.6667 14.6667 11.682 14.6667 8.00001C14.6667 4.31801 11.682 1.33334 8 1.33334C4.318 1.33334 1.33333 4.31801 1.33333 8.00001ZM6.11467 5.17132L8 7.05732L9.88534 5.17132L10.8287 6.11465L8.94267 7.99998L10.8287 9.88532L9.88534 10.8287L8 8.94265L6.11467 10.8287L5.17134 9.88532L7.05734 7.99998L5.17134 6.11465L6.11467 5.17132Z" fill="#001018"/>
</svg>

<svg width="16" height="16" fill="none" xmlns="http://www.w3.org/2000/svg"><path fill-rule="evenodd" clip-rule="evenodd" d="M1.333 8a6.667 6.667 0 1 0 13.333 0A6.667 6.667 0 0 0 1.333 8zm4.782-2.829L8 7.057l1.885-1.886.944.944L8.943 8l1.886 1.885-.944.944L8 8.943l-1.885 1.886-.944-.944L7.057 8 5.171 6.115l.944-.944z" fill="#001018"/></svg>
